X:1
T:I Expect to Get to Heaven
T:I Expect to Get to Heaven
T:George Crawford Hugg
T:Johnson Oatman, Jr., 1896
T:Public Domain Courtesy of the Cyber Hymnal™
T:Public Domain Courtesy of the Cyber Hymnal™
C:George Crawford Hugg
Z:Public Domain
Z:Courtesy of the Cyber Hymnal™
%%score ( 1 2 ) ( 3 4 )
L:1/8
Q:1/4=85
M:2/4
K:D
V:1 treble 
V:2 treble 
V:3 bass 
V:4 bass 
V:1
 D | [DF][FA] [FA]>[GB] | [FA][DF] z [FA] | [GB][Bd] [Ac]>B | [FA]3 D | [DF][FA] [FA]>[GB] | %6
w: 1.~The|way our fa- thers|tra- veled is|good e- nough for|me, They|fol- lowed in the|
w: 2.~The|world may sneer and|tells me I’ll|ne- ver reach the|goal, That|good works are suf-|
w: 3.~When|bowers of sin en-|tice me to|rest my wea- ry|feet, I|find in Christ my|
w: 4.~Mil-|lions are now in|glo- ry, in|shin- ing white ar-|rayed, Who|tra- veled this same|
 [FA][DF] z D | [A,F][A,F] [A,E]>[^G,D] | [A,E]3 [A,D] | [DF][FA] [FA]>[GB] | [FA][DF] z [FA] | %11
w: foot- steps that|led from Cal- va-|ry. It|led them up to|glo- ry, that|
w: fi- cient to|save a hu- man|soul, But|while the world is|talk- ing, I|
w: Sav- ior a|safe, a sure re-|treat; He|tells me to press|on- ward, and|
w: path- way, and|oft- en were dis-|mayed, But|hap- py now i|glo- ry they|
 [GB][Bd] [Ac]>[GB] | [FA]3 A/A/ | [Fd]>[Fd] [Gd]>[Gd] | [Fd][FA] D[DE] | [DF]2 [CE]2 | %16
w: land of end- less|day, I ex-|pect to get to|Hea- ven by the|same old|
w: still will watch and|pray, I ex-|pect to get to|Hea- ven by the|same old|
w: not look back, nor|stay, I ex-|pect to get to|Hea- ven by the|same old|
w: sing both night and|day, I ex-|pect to get to|Hea- ven by the|same old|
 !fermata!D2 ||"^Refrain" D[DE] | [DF][DF] [DA]2 | D2 D[DE] | [DF][DF] [CE]>[CE] | D2 [FA][FA] | %22
w: way.||||||
w: way.||||||
w: way.||||||
w: way.||||||
 [GB][Bd] [Ac]>[GB] | [FA]2 [DF][DF] | [FA][DF] [Fd]>[DF] | [CE]3 D | [DF][FA] [FA]>[GB] | %27
w: |||||
w: |||||
w: |||||
w: |||||
 [FA][DF] z [FA] | [GB][Bd] [Ac]>[GB] | [FA]3 A/A/ | [Fd]>[Fd] [Gd]>[Gd] | [Fd][FA] D[DE] | %32
w: |||||
w: |||||
w: |||||
w: |||||
 [DF]2 [CE]2 | D3 |] %34
w: ||
w: ||
w: ||
w: ||
V:2
 D | x4 | x4 | x4 | x3 D | x4 | x3 D | x4 | x4 | x4 | x4 | x4 | x3 A/A/ | x4 | x2 D x | x4 | D2 || %17
 D x | x4 | D2 D x | x4 | D2 x2 | x4 | x4 | x4 | x3 D | x4 | x4 | x4 | x3 A/A/ | x4 | x2 D x | x4 | %33
 D3 |] %34
V:3
 [D,F,] | [D,A,][D,D] [D,D]>[D,D] | [D,D][D,A,] z [D,D] | [G,D][G,D] [G,D]>[G,D] | [D,D]3 [D,F,] | %5
w: ~|~ ~ ~ ~|~ ~ ~|~ ~ ~ ~|~ ~|
 [D,A,][D,D] [D,D]>[D,D] | [D,D][D,A,] z [D,F,] | D,D, [C,E,]>[B,,E,] | [A,,C,]3 [D,F,] | %9
w: ~ ~ ~ ~|~ ~ ~|~ ~ ~ ~|~ ~|
 [D,A,][D,D] [D,D]>[D,D] | [D,D][D,A,] z [D,D] | [G,D][G,D] [G,D]>[G,D] | [D,D]3 A,/A,/ | %13
w: ~ ~ ~ ~|~ ~ ~|~ ~ ~ ~|~ ~ ~|
 [D,A,]>[D,A,] [D,B,]>[D,B,] | [D,A,][D,A,] [F,A,][^G,B,] | A,2 (A,G,) | !fermata![D,F,]2 || %17
w: ~ ~ ~ ~|~ ~ ~ ~|~ ~ *|~|
 [D,F,][D,G,] | [D,A,][D,A,] [D,F,]2 | [D,F,]2 [D,F,][D,G,] | [D,A,][D,A,] [A,,A,]>[A,,G,] | %21
w: O this|bless- èd old|way, it is|good e- nough for|
 [D,F,]2 [D,D][D,D] | [G,D][G,D] [G,D]>[G,D] | [D,D]2 [D,A,][D,A,] | [D,A,][D,A,] [D,A,]>[D,A,] | %25
w: me, It is|good e- nough for|me, it is|good e- nough for|
 [A,,A,]3 [D,F,] | [D,A,][D,D] [D,D]>[D,D] | [D,D][D,A,] z [D,D] | [G,D][G,D] [G,D]>[G,D] | %29
w: me; My|Sav- ior goes be-|fore me, I|fol- low Him each|
 [D,D]3 A,/A,/ | [D,A,]>[D,A,] [D,B,]>[D,B,] | [D,A,][D,A,] [F,A,][^G,B,] | A,2 (A,G,) | [D,F,]3 |] %34
w: day, I ex-|pect to get to|Hea- ven by the|same old *|way.|
V:4
 x | x4 | x4 | x4 | x4 | x4 | x4 | D,D, x2 | x4 | x4 | x4 | x4 | x3 A,/A,/ | x4 | x4 | A,2 A,,2 | %16
 x2 || x2 | x4 | x4 | x4 | x4 | x4 | x4 | x4 | x4 | x4 | x4 | x4 | x3 A,/A,/ | x4 | x4 | A,2 A,,2 | %33
 x3 |] %34

